StripePaymentsUI/StripePaymentsUI/Resources/StripePaymentsUI.xcassets/CardsNoPadding/stp_card_unpadded_discover.imageset/stp_card_unpadded_discover.svg

<svg fill="none" height="16" viewBox="0 0 24 16" width="24" xmlns="http://www.w3.org/2000/svg"><path d="m22.2099 15.9999h-20.42198c-.46978.004-.92169-.1844-1.256572-.5231-.336538-.3404-.52743184-.8045-.53133951-1.2877l-.00000849-12.37609c.00391616-.48534.19481-.949396.531348-1.289794.334882-.338723.786782-.52713345 1.258712-.52314517l20.42204-.00000906c.4698-.00397922.9217.18443123 1.2565.52315423.3366.340398.5275.804454.5314 1.287694v12.38369c-.0061.5039-.2093.9579-.5339 1.2849-.323.3253-.7663.5246-1.2562.5204z" fill="#fff"/><path d="m22.2121 15.7499h-.0022-20.42198-.00212c-.40105.0034-.788418-.1573-1.076671-.4489-.289822-.2931-.455483-.6942-.459121-1.113-.000002-.0003-.000005-.0006-.000008-.0009v-12.37304c.003647-.42105.16941-.822035.459129-1.115078.288137-.29144.675461-.452329 1.078811-.44892v.000009h.00212 20.42204l.0021-.000018c.401-.003397.7884.157371 1.0767.448929.2897.293109.4554.694078.4591 1.112818v.00113 12.38007c-.0057.4369-.1818.8288-.4613 1.1103-.2783.2803-.6578.4502-1.0766.4466z" stroke="#000" stroke-opacity=".2" stroke-width=".5"/><path d="m12.6124 15.9999h9.3849c.5027.0001 1.0027-.0499 1.4527-.4999.5-.5.55-1 .55-1.4697s0-2.3586 0-2.3586c-3.5438 2.0343-7.3872 3.4951-11.3876 4.3282z" fill="#f27712" opacity=".5"/><path d="m23.1725 9.29649h-.8525l-.9599-1.2662h-.0911v1.2662h-.6952v-3.14482h1.0262c.8028 0 1.2663.33103 1.2663.92689 0 .48828-.2897.80276-.8111.90207zm-1.0262-2.1931c0-.30621-.2318-.46345-.6621-.46345h-.2152v.95173h.1986c.4469 0 .6787-.16552.6787-.48828zm-4.0056-.95172h1.9697v.52965h-1.2745v.70345h1.2248v.53793h-1.2248v.85242h1.2745v.52965h-1.9697zm-2.2344 3.22758-1.5062-3.23586h.7613l.9518 2.11862.96-2.11862h.7448l-1.5228 3.23586h-.3724zm-6.29797-.00827c-1.05931 0-1.8869-.72-1.8869-1.65517 0-.91035.84414-1.6469 1.90345-1.6469.29793 0 .54622.05793.85242.19034v.72828c-.2319-.22782-.5439-.35559-.86897-.35586-.66207 0-1.1669.48-1.1669 1.08414 0 .63724.49655 1.09241 1.2 1.09241.31448 0 .55447-.09931.83587-.34759v.72828c-.3145.13241-.57932.18207-.86897.18207zm-2.10207-1.03449c0 .61242-.50483 1.03449-1.23311 1.03449-.52965 0-.91034-.18207-1.2331-.59586l.45517-.38897c.15724.28138.42207.42207.75311.42207.31448 0 .53793-.19035.53793-.43862 0-.14069-.06621-.24828-.2069-.33104-.15426-.07485-.3149-.13579-.48-.18207-.65379-.20689-.87724-.43034-.87724-.86896 0-.5131.48-.90207 1.10897-.90207.39724 0 .7531.12414 1.05103.35586l-.36414.4138c-.14432-.15822-.3486-.24835-.56276-.24828-.29793 0-.5131.14897-.5131.34759 0 .16551.12414.25655.53793.39724.79448.24827 1.02621.48 1.02621.9931zm-3.41793-2.18482h.69517v3.1531h-.69517zm-2.23449 3.1531h-1.026203v-3.1531h1.026203c1.12552 0 1.90345.64551 1.90345 1.57241 0 .47173-.23172.91862-.63724 1.21655-.34759.24828-.73655.36414-1.27448.36414zm.81104-2.3669c-.23173-.18206-.49655-.24827-.95173-.24827h-.19034v2.08552h.19034c.4469 0 .72828-.08276.95173-.24828.24-.19862.38069-.49655.38069-.80276s-.14069-.59586-.38069-.78621z" fill="#000"/><path d="m12.4137 6.06891c-.9103 0-1.6552.72827-1.6552 1.63034 0 .96.7118 1.68 1.6552 1.68.9269 0 1.6552-.72827 1.6552-1.65517s-.72-1.65517-1.6552-1.65517z" fill="#f27712"/></svg>

<svg width="24" height="16" viewBox="0 0 24 16" fill="none" xmlns="http://www.w3.org/2000/svg">
<path d="M22.2099 15.9999L1.78792 15.9999C1.31814 16.0039 0.86623 15.8155 0.531348 15.4768C0.19481 15.1364 0.00391616 14.6723 8.49175e-06 14.1891L0 1.81301C0.00391616 1.32767 0.19481 0.863614 0.531348 0.523216C0.86623 0.184493 1.31813 -0.00391745 1.79006 7.08333e-05L22.2121 6.17735e-05C22.6819 -0.00391745 23.1338 0.184493 23.4686 0.523216C23.8052 0.863614 23.9961 1.32767 24 1.81091L24 14.1946C23.9939 14.6985 23.7907 15.1525 23.4661 15.4795C23.1431 15.8048 22.6998 16.0041 22.2099 15.9999Z" fill="white"/>
<path d="M22.2121 15.7499H22.2099L1.78792 15.7499L1.7858 15.7499C1.38475 15.7533 0.997382 15.5926 0.709129 15.301C0.419307 15.0079 0.253646 14.6068 0.250008 14.188C0.250006 14.1877 0.250003 14.1874 0.25 14.1871L0.25 1.81406C0.253647 1.39301 0.41941 0.992025 0.709129 0.698982C0.997266 0.407542 1.38459 0.246653 1.78794 0.250062V0.250071H1.79006L22.2121 0.250071L22.2142 0.250053C22.6152 0.246656 23.0026 0.407424 23.2909 0.698982C23.5806 0.992091 23.7463 1.39306 23.75 1.8118C23.75 1.81218 23.75 1.81255 23.75 1.81293L23.75 14.193C23.7443 14.6299 23.5682 15.0218 23.2887 15.3033C23.0104 15.5836 22.6309 15.7535 22.2121 15.7499Z" stroke="black" stroke-opacity="0.2" stroke-width="0.5"/>
<path opacity="0.5" d="M12.6124 15.9999H21.9973C22.5 16 23 15.95 23.45 15.5C23.95 15 24 14.5 24 14.0303C24 13.5606 24 11.6717 24 11.6717C20.4562 13.706 16.6128 15.1668 12.6124 15.9999Z" fill="#F27712"/>
<path d="M23.1725 9.29649H22.32L21.3601 8.03029H21.269V9.29649H20.5738V6.15167H21.6C22.4028 6.15167 22.8663 6.4827 22.8663 7.07856C22.8663 7.56684 22.5766 7.88132 22.0552 7.98063L23.1725 9.29649ZM22.1463 7.10339C22.1463 6.79718 21.9145 6.63994 21.4842 6.63994H21.269V7.59167H21.4676C21.9145 7.59167 22.1463 7.42615 22.1463 7.10339ZM18.1407 6.15167H20.1104V6.68132H18.8359V7.38477H20.0607V7.9227H18.8359V8.77512H20.1104V9.30477H18.1407V6.15167ZM15.9063 9.37925L14.4001 6.14339H15.1614L16.1132 8.26201L17.0732 6.14339H17.818L16.2952 9.37925H15.9228H15.9063ZM9.60833 9.37098C8.54902 9.37098 7.72143 8.65098 7.72143 7.71581C7.72143 6.80546 8.56557 6.06891 9.62488 6.06891C9.92281 6.06891 10.1711 6.12684 10.4773 6.25925V6.98753C10.2454 6.75971 9.9334 6.63194 9.60833 6.63167C8.94626 6.63167 8.44143 7.11167 8.44143 7.71581C8.44143 8.35305 8.93798 8.80822 9.64143 8.80822C9.95591 8.80822 10.1959 8.70891 10.4773 8.46063V9.18891C10.1628 9.32132 9.89798 9.37098 9.60833 9.37098ZM7.50626 8.33649C7.50626 8.94891 7.00143 9.37098 6.27315 9.37098C5.7435 9.37098 5.36281 9.18891 5.04005 8.77512L5.49522 8.38615C5.65246 8.66753 5.91729 8.80822 6.24833 8.80822C6.56281 8.80822 6.78626 8.61787 6.78626 8.3696C6.78626 8.22891 6.72005 8.12132 6.57936 8.03856C6.4251 7.96371 6.26446 7.90277 6.09936 7.85649C5.44557 7.6496 5.22212 7.42615 5.22212 6.98753C5.22212 6.47443 5.70212 6.08546 6.33109 6.08546C6.72833 6.08546 7.08419 6.2096 7.38212 6.44132L7.01798 6.85512C6.87366 6.6969 6.66938 6.60677 6.45522 6.60684C6.15729 6.60684 5.94212 6.75581 5.94212 6.95443C5.94212 7.11994 6.06626 7.21098 6.48005 7.35167C7.27453 7.59994 7.50626 7.83167 7.50626 8.34477V8.33649ZM4.08833 6.15167H4.7835V9.30477H4.08833V6.15167ZM1.85384 9.30477H0.827637V6.15167H1.85384C2.97936 6.15167 3.75729 6.79718 3.75729 7.72408C3.75729 8.19581 3.52557 8.6427 3.12005 8.94063C2.77246 9.18891 2.3835 9.30477 1.84557 9.30477H1.85384ZM2.66488 6.93787C2.43315 6.75581 2.16833 6.6896 1.71315 6.6896H1.52281V8.77512H1.71315C2.16005 8.77512 2.44143 8.69236 2.66488 8.52684C2.90488 8.32822 3.04557 8.03029 3.04557 7.72408C3.04557 7.41787 2.90488 7.12822 2.66488 6.93787Z" fill="black"/>
<path d="M12.4137 6.06891C11.5034 6.06891 10.7585 6.79718 10.7585 7.69925C10.7585 8.65925 11.4703 9.37925 12.4137 9.37925C13.3406 9.37925 14.0689 8.65098 14.0689 7.72408C14.0689 6.79718 13.3489 6.06891 12.4137 6.06891Z" fill="#F27712"/>
</svg>
